Hatter-kde/actions/24/edit-select-lasso.svg

<svg xmlns="http://www.w3.org/2000/svg" viewBox="0 0 24 24">
  <defs id="defs3051">
    <style type="text/css" id="current-color-scheme">
      .ColorScheme-Text {
        color:#363636;
      }
      </style>
  </defs>
 <path style="fill:currentColor;fill-opacity:1;stroke:none" 
     d="M 11.912109 4 A 8 6.00001 0 0 0 9.4941406 4.3027344 L 10.332031 5.1445312 A 7 5 0 0 1 12 4.9960938 A 7 5 0 0 1 12.527344 5.015625 L 11.912109 4 z M 13.119141 4.0625 L 13.789062 5.1679688 A 7 5 0 0 1 16.53125 6.1855469 L 17.34375 5.5410156 A 8 6.00001 0 0 0 13.119141 4.0625 z M 8.4179688 4.6386719 A 8 6.00001 0 0 0 6.5585938 5.6074219 L 7.53125 6.1542969 A 7 5 0 0 1 9.1953125 5.421875 L 8.4179688 4.6386719 z M 18.158203 6.1699219 L 17.369141 6.796875 A 7 5 0 0 1 18.164062 7.6347656 L 19.164062 7.3417969 A 8 6.00001 0 0 0 18.158203 6.1699219 z M 5.71875 6.28125 A 8 6.00001 0 0 0 4.6855469 7.5859375 L 5.6171875 7.953125 A 7 5 0 0 1 6.6289062 6.7929688 L 5.71875 6.28125 z M 19.648438 8.2421875 L 18.681641 8.5253906 A 7 5 0 0 1 18.978516 9.6152344 L 19.984375 9.7519531 A 8 6.00001 0 0 0 19.648438 8.2421875 z M 4.2617188 8.4921875 A 8 6.00001 0 0 0 4.0039062 9.9179688 L 5.0078125 9.8730469 A 7 5 0 0 1 5.1894531 8.859375 L 4.2617188 8.4921875 z M 18.939453 10.619141 A 7 5 0 0 1 18.351562 12.085938 L 19.341797 12.361328 A 8 6.00001 0 0 0 19.925781 10.753906 L 18.939453 10.619141 z M 5.109375 10.869141 L 4.1035156 10.914062 A 8 6.00001 0 0 0 4.6660156 12.386719 L 5.5761719 11.96875 A 7 5 0 0 1 5.109375 10.869141 z M 6.1972656 12.785156 L 5.2578125 13.214844 A 8 6.00001 0 0 0 7.0292969 14.681641 C 7.6653289 17.05725 5.188846 19.18299 6 19.994141 C 7.134713 20.10226 7.8091632 18.427325 8.0820312 16.804688 C 8.1841042 16.665758 8.5530274 16.13776 8.8496094 15.507812 A 8 6.00001 0 0 0 11.990234 15.996094 L 10.923828 14.929688 A 7 5 0 0 1 9.1367188 14.544922 C 9.1446417 14.10087 8.8709521 13.821326 8.0019531 14 C 8.0009131 13.998623 8.00106 13.995491 8 13.994141 C 7.920807 13.994141 7.8423679 13.978347 7.7636719 13.966797 A 7 5 0 0 1 6.1972656 12.785156 z M 17.658203 12.931641 A 7 5 0 0 1 15.984375 14.099609 L 16.960938 14.695312 A 8 6.00001 0 0 0 18.738281 13.232422 L 17.658203 12.931641 z M 14.824219 14.564453 A 7 5 0 0 1 12.394531 14.986328 L 13.316406 15.908203 A 8 6.00001 0 0 0 15.910156 15.226562 L 14.824219 14.564453 z "
     class="ColorScheme-Text"
     />
</svg>

<?xml version="1.0" encoding="UTF-8"?>
<svg viewBox="0 0 24 24" xmlns="http://www.w3.org/2000/svg">
 <defs id="defs3051">
  <style id="current-color-scheme" type="text/css">.ColorScheme-Text {
        color:#363636;
      }</style>
 </defs>
 <path class="ColorScheme-Text" d="m11.912 4a8 6 0 0 0-2.418 0.30273l0.83789 0.8418a7 5 0 0 1 1.668-0.14844 7 5 0 0 1 0.52734 0.019531l-0.61524-1.0156zm1.207 0.0625 0.66992 1.1055a7 5 0 0 1 2.7422 1.0176l0.8125-0.64453a8 6 0 0 0-4.2246-1.4785zm-4.7012 0.57617a8 6 0 0 0-1.8594 0.96875l0.97266 0.54688a7 5 0 0 1 1.6641-0.73242l-0.77734-0.7832zm9.7402 1.5312-0.78906 0.62695a7 5 0 0 1 0.79492 0.83789l1-0.29297a8 6 0 0 0-1.0059-1.1719zm-12.439 0.11133a8 6 0 0 0-1.0332 1.3047l0.93164 0.36719a7 5 0 0 1 1.0117-1.1602l-0.91016-0.51172zm13.93 1.9609-0.9668 0.2832a7 5 0 0 1 0.29688 1.0898l1.0059 0.13672a8 6 0 0 0-0.33594-1.5098zm-15.387 0.25a8 6 0 0 0-0.25781 1.4258l1.0039-0.044922a7 5 0 0 1 0.18164-1.0137l-0.92773-0.36719zm14.678 2.127a7 5 0 0 1-0.58789 1.4668l0.99024 0.27539a8 6 0 0 0 0.58398-1.6074l-0.98633-0.13476zm-13.83 0.25-1.0059 0.044921a8 6 0 0 0 0.5625 1.4727l0.91016-0.41797a7 5 0 0 1-0.4668-1.0996zm1.0879 1.916-0.93945 0.42969a8 6 0 0 0 1.7715 1.4668c0.63603 2.3756-1.8405 4.5013-1.0293 5.3125 1.1347 0.10812 1.8092-1.5668 2.082-3.1895 0.10207-0.13893 0.471-0.66693 0.76758-1.2969a8 6 0 0 0 3.1406 0.48828l-1.0664-1.0664a7 5 0 0 1-1.7871-0.38477c0.0079229-0.44405-0.26577-0.7236-1.1348-0.54492-0.00104-0.001377-8.931e-4 -0.004509-0.0019531-0.005859-0.079193 0-0.15763-0.015794-0.23633-0.027344a7 5 0 0 1-1.5664-1.1816zm11.461 0.14648a7 5 0 0 1-1.6738 1.168l0.97656 0.5957a8 6 0 0 0 1.7773-1.4629l-1.0801-0.30078zm-2.834 1.6328a7 5 0 0 1-2.4297 0.42188l0.92188 0.92188a8 6 0 0 0 2.5938-0.68164l-1.0859-0.66211z" fill="currentColor"/>
</svg>
